X:9003
T:La M ch'est vraiment superbe
R:Divers
C:Traditionnel
A:Normandie
O:France
M:6/8
L:1/8
Q:120
K:C
z E E|E3 F E D|D3 C C E|G3 G B A|G3 z B c|G2 A G2 F|!
E3 E z E|E2 E E D C|D3-D z E| G3-G z E|G3-G2 z|!
E G c "H"d2 e/2d/2|c3-c2 z|G2 A G> F E/2 F/2|G3 G2 z| E2 E E> E D/2 C/2|
